X: 33351
T: Queen Of Rangoon, The
R: reel
M: 4/4
K: Bminor
|:(3B2d2f2- (3f2e2d2|(3B2d2f2 e3d|(3G2d2f2- (3f2e2d2|(3:2:4G2d2fa e3d|
(3A2c2d2 (3d2c2B2|(3A2c2d2 d2 d2|(3e2d2B2 (3e2d2c2|B8:|
|:d3f edc2-|cfed c3f|edB2- BedB|AAFA dB3|
d3f edc2-|cfed c3f|edB2- BedB|AAFA dB3:|dB3|

